X: 20714
T: Johnny Boyle's
R: jig
M: 6/8
K: Dmajor
|:d2 c Bcd A2 F FEF|G2 E E3 F2 D DFA|
d2 c Bcd A2 F FEF|1 E2 e edc d2 d ABc:|2 E2 e edc d2 d d2 e:|
|:f2 d dcd f2 d dcd|e2 c cBc e2 c A2 d|
f2 d dcd f2 d dcd|1 Bed cBc d2 d d2 e:|2 Bed cBc d2 d d3:|

